assets/images/script/j-3-mid.svg

<svg fill="none" height="70" viewBox="0 0 287 70" width="287" xmlns="http://www.w3.org/2000/svg"><path d="m14.2435 40.0454c-3.3078 0-1.4966 2.2905.6165 3.4528 11.3478 6.2412 24.9669 7.4598 37.2403 3.3294 9.0661-3.0511 24.0039-11.749 17.1403-22.9977-7.7864-12.761-24.566-17.22983-38.35-12.7628-12.1226 3.9286-32.23328 17.3989-27.49857 32.7393 5.35788 17.3596 31.57717 21.4269 46.61187 22.6278 24.0503 1.9209 55.7181-.4008 75.4961-14.1725 12.743-8.8728 19.054-28.2859 19.208-45.01725m-.864-4.68586c5.579 17.97681-5.978 38.18371 8.656 53.20311 26.5 15.5 66.116 7.8929 94 5.3701 11.986-1.0845 23.604 0 35.639 0 4.395 0-.229.8473-1.542 1.1098" stroke="#000" stroke-linecap="round" stroke-width="5"/></svg>

<svg width="287" height="70" viewBox="0 0 287 70" fill="none" xmlns="http://www.w3.org/2000/svg">
<path d="M14.2435 40.0454C10.9357 40.0454 12.7469 42.3359 14.86 43.4982C26.2078 49.7394 39.8269 50.958 52.1003 46.8276C61.1664 43.7765 76.1042 35.0786 69.2406 23.8299C61.4542 11.0689 44.6746 6.60007 30.8906 11.0671C18.768 14.9957 -1.34268 28.466 3.39203 43.8064C8.74991 61.166 34.9692 65.2333 50.0039 66.4342C74.0542 68.3551 105.722 66.0334 125.5 52.2617C138.243 43.3889 144.554 23.9758 144.708 7.24445M143.844 2.55859C149.423 20.5354 137.866 40.7423 152.5 55.7617C179 71.2617 218.616 63.6546 246.5 61.1318C258.486 60.0473 270.104 61.1318 282.139 61.1318C286.534 61.1318 281.91 61.9791 280.597 62.2416" stroke="black" stroke-width="5" stroke-linecap="round"/>
</svg>
